assets/images/FastAPI.svg

<svg width="25" height="24" viewBox="0 0 25 24" fill="none" xmlns="http://www.w3.org/2000/svg">
<path d="M12.1532 0C5.44362 0 0 5.375 0 12C0 18.627 5.44362 24 12.1532 24C18.8638 24 24.3064 18.627 24.3064 12C24.3064 5.375 18.8648 0 12.1532 0ZM11.5212 21.62V14.092H7.28179L13.3715 2.38V9.908H17.452L11.5212 21.62Z" fill="#626262"/>
</svg>

<svg width="25" height="24" viewBox="0 0 25 24" fill="none" xmlns="http://www.w3.org/2000/svg"><path d="M12.153 0C5.443 0 0 5.375 0 12c0 6.627 5.444 12 12.153 12 6.71 0 12.153-5.373 12.153-12 0-6.625-5.441-12-12.153-12Zm-.632 21.62v-7.528h-4.24l6.09-11.712v7.528h4.081l-5.93 11.712Z" fill="#626262"/></svg>
